web-magafilio/image/home/icon-plataforma.svg

<svg width="55" height="51" viewBox="0 0 55 51" fill="none" xmlns="http://www.w3.org/2000/svg">
<path d="M53.6893 10.3987V45.7746C53.6893 46.6826 53.3286 47.5534 52.6866 48.1954C52.0446 48.8374 51.1738 49.1981 50.2658 49.1981H4.61946C3.7115 49.1981 2.84072 48.8374 2.1987 48.1954C1.55667 47.5534 1.19598 46.6826 1.19598 45.7746V10.3987H53.6893Z" fill="#F1F2F2"/>
<path d="M53.6893 4.69277V10.3986H1.19598V4.69277C1.19598 3.7848 1.55667 2.91403 2.1987 2.272C2.84072 1.62997 3.7115 1.26929 4.61946 1.26929H50.2658C51.1738 1.26929 52.0446 1.62997 52.6866 2.272C53.3286 2.91403 53.6893 3.7848 53.6893 4.69277Z" fill="#A4B0C0"/>
<path d="M50.2658 0.128174H4.61945C3.40883 0.128174 2.2478 0.60909 1.39176 1.46513C0.535726 2.32116 0.0548096 3.48219 0.0548096 4.69281L0.0548096 45.7746C0.0548096 46.9852 0.535726 48.1462 1.39176 49.0022C2.2478 49.8583 3.40883 50.3392 4.61945 50.3392H50.2658C51.4764 50.3392 52.6375 49.8583 53.4935 49.0022C54.3496 48.1462 54.8305 46.9852 54.8305 45.7746V4.69281C54.8305 3.48219 54.3496 2.32116 53.4935 1.46513C52.6375 0.60909 51.4764 0.128174 50.2658 0.128174ZM52.5481 45.7746C52.5481 46.3799 52.3077 46.9604 51.8797 47.3884C51.4517 47.8164 50.8711 48.0569 50.2658 48.0569H4.61945C4.01414 48.0569 3.43362 47.8164 3.0056 47.3884C2.57759 46.9604 2.33713 46.3799 2.33713 45.7746V4.69281C2.33713 4.0875 2.57759 3.50699 3.0056 3.07897C3.43362 2.65095 4.01414 2.41049 4.61945 2.41049H50.2658C50.8711 2.41049 51.4517 2.65095 51.8797 3.07897C52.3077 3.50699 52.5481 4.0875 52.5481 4.69281V45.7746Z" fill="#474C54"/>
<path d="M6.90178 6.97495H8.04294C8.34559 6.97495 8.63585 6.85472 8.84986 6.64071C9.06387 6.4267 9.1841 6.13644 9.1841 5.83379C9.1841 5.53113 9.06387 5.24087 8.84986 5.02687C8.63585 4.81286 8.34559 4.69263 8.04294 4.69263H6.90178C6.59913 4.69263 6.30887 4.81286 6.09486 5.02687C5.88085 5.24087 5.76062 5.53113 5.76062 5.83379C5.76062 6.13644 5.88085 6.4267 6.09486 6.64071C6.30887 6.85472 6.59913 6.97495 6.90178 6.97495Z" fill="#474C54"/>
<path d="M12.6075 6.97495H13.7487C14.0513 6.97495 14.3416 6.85472 14.5556 6.64071C14.7696 6.4267 14.8898 6.13644 14.8898 5.83379C14.8898 5.53113 14.7696 5.24087 14.5556 5.02687C14.3416 4.81286 14.0513 4.69263 13.7487 4.69263H12.6075C12.3049 4.69263 12.0146 4.81286 11.8006 5.02687C11.5866 5.24087 11.4664 5.53113 11.4664 5.83379C11.4664 6.13644 11.5866 6.4267 11.8006 6.64071C12.0146 6.85472 12.3049 6.97495 12.6075 6.97495Z" fill="#474C54"/>
<path d="M46.8423 6.97495H47.9835C48.2861 6.97495 48.5764 6.85472 48.7904 6.64071C49.0044 6.4267 49.1247 6.13644 49.1247 5.83379C49.1247 5.53113 49.0044 5.24087 48.7904 5.02687C48.5764 4.81286 48.2861 4.69263 47.9835 4.69263H46.8423C46.5397 4.69263 46.2494 4.81286 46.0354 5.02687C45.8214 5.24087 45.7012 5.53113 45.7012 5.83379C45.7012 6.13644 45.8214 6.4267 46.0354 6.64071C46.2494 6.85472 46.5397 6.97495 46.8423 6.97495Z" fill="#474C54"/>
<path d="M49.1247 9.25732H5.76061C5.45795 9.25732 5.16769 9.37755 4.95368 9.59156C4.73967 9.80557 4.61945 10.0958 4.61945 10.3985C4.61945 10.7011 4.73967 10.9914 4.95368 11.2054C5.16769 11.4194 5.45795 11.5396 5.76061 11.5396H49.1247C49.4273 11.5396 49.7176 11.4194 49.9316 11.2054C50.1456 10.9914 50.2658 10.7011 50.2658 10.3985C50.2658 10.0958 50.1456 9.80557 49.9316 9.59156C49.7176 9.37755 49.4273 9.25732 49.1247 9.25732Z" fill="#474C54"/>
<path d="M29.3252 21.7386H29.2688L29.1537 21.7662C28.6283 21.8924 28.139 22.1374 27.7227 22.4821C27.5986 22.5832 27.4201 22.7672 27.2594 22.9362C27.0669 23.1385 26.822 23.4033 26.5466 23.7069L26.5461 23.7075C25.5013 24.8613 25.3467 24.9921 24.8067 25.3517C24.353 25.63 23.8783 25.8718 23.387 26.0747C22.8821 26.2671 22.3503 26.3773 21.8113 26.4014L21.4204 26.4156L20.4568 26.4506V27.4149V28.5912V29.766V30.766H21.4568H21.7048C21.8193 30.766 21.9681 30.7605 22.1069 30.7519L25.621 34.2922L29.1798 37.8776V39.1086V39.5185L29.4676 39.8105L31.0784 41.445L31.0809 41.4475L32.706 43.0847L33.4158 43.7998L34.1255 43.0847L35.7578 41.4403L37.39 39.7958L38.0905 39.0901L37.3888 38.3856L35.7706 36.7611L35.7694 36.7598L34.1512 35.1295L33.8578 34.834H33.4414H32.2256L31.9732 34.5797L32.0089 34.5478C32.1141 34.4539 32.2113 34.3514 32.2994 34.2414C32.8845 33.5708 33.2441 32.732 33.3278 31.8447C33.3437 31.6805 33.349 31.2885 33.3518 30.7382C33.3548 30.1414 33.3545 29.2817 33.3509 28.1314C33.3505 27.9456 33.3501 27.7695 33.3497 27.6026C33.3465 26.1465 33.3448 25.3874 33.3273 24.9569C33.3174 24.7149 33.301 24.516 33.2596 24.3303C33.2245 24.1727 33.1697 24.0315 33.1423 23.9609C33.1377 23.9492 33.134 23.9395 33.1311 23.9319L33.1266 23.9197L33.1217 23.9076C32.9069 23.374 32.5667 22.8999 32.1295 22.5263C31.6924 22.1526 31.1713 21.8907 30.6107 21.7634L30.5706 21.7543L30.5299 21.7485C30.1304 21.6918 29.7253 21.6885 29.3252 21.7386Z" fill="#00CBA9" stroke="#474C54" stroke-width="2"/>
<path d="M19.9375 33.7304L19.9373 33.7306L17.4953 36.1909L16.7961 36.8953L17.4953 37.5998L18.3093 38.4199L19.1219 39.2385L19.8274 39.9493L20.5371 39.2428L22.4374 37.3513L22.4379 37.3508L24.0462 35.7475L24.7351 35.7439L24.7364 35.7439L25.8355 35.7367L28.2151 35.7212L26.5387 34.0323L25.1687 32.6521L23.7988 31.2718L23.0892 30.557L22.3795 31.2716L19.9375 33.7304Z" fill="#00CBA9" stroke="#474C54" stroke-width="2"/>
<path d="M29.7693 16.3342C29.4275 16.4117 29.1076 16.5659 28.8331 16.7852C28.5587 17.0045 28.3368 17.2833 28.1841 17.6009C28.0579 17.8434 27.9877 18.1114 27.9788 18.3851C27.9591 18.6776 28.0021 18.971 28.1049 19.2454C28.2077 19.5197 28.3679 19.7685 28.5747 19.975C29.0408 20.4762 29.5212 20.6931 30.1428 20.7017C30.4658 20.7164 30.7868 20.6435 31.0722 20.4906C31.366 20.3439 31.626 20.1367 31.8352 19.8823C32.0444 19.628 32.1983 19.3322 32.2868 19.0141C32.3937 18.5594 32.3548 18.0822 32.1756 17.6512C31.976 17.2583 31.6874 16.9183 31.3331 16.6587C31.133 16.5296 30.9155 16.4299 30.6873 16.3629C30.385 16.3023 30.0748 16.2926 29.7693 16.3342Z" fill="#00CBA9"/>
<path fill-rule="evenodd" clip-rule="evenodd" d="M32.2868 19.0141C32.1983 19.3322 32.0444 19.628 31.8352 19.8823C31.626 20.1367 31.366 20.3439 31.0722 20.4906C30.7868 20.6435 30.4658 20.7164 30.1428 20.7017C29.5212 20.6931 29.0408 20.4762 28.5747 19.975C28.3679 19.7685 28.2077 19.5197 28.1049 19.2454C28.0021 18.971 27.9591 18.6776 27.9788 18.3851C27.9877 18.1114 28.0579 17.8434 28.1841 17.6009C28.3368 17.2833 28.5587 17.0045 28.8331 16.7852C29.1076 16.5659 29.4275 16.4117 29.7693 16.3342C30.0748 16.2926 30.385 16.3023 30.6873 16.3629C30.9155 16.4299 31.133 16.5296 31.3331 16.6587C31.6874 16.9183 31.976 17.2583 32.1756 17.6512C32.3548 18.0822 32.3937 18.5594 32.2868 19.0141ZM26.395 16.7066C26.6769 16.1308 27.0829 15.6237 27.5846 15.2228C28.0943 14.8155 28.7575 14.4192 29.4995 14.3524C30.0256 14.2808 30.5599 14.2975 31.0804 14.4019L31.1668 14.4192L31.2514 14.4441C31.6638 14.5653 32.0565 14.7453 32.4176 14.9783L32.4674 15.0104L32.5152 15.0454C33.1234 15.4911 33.6175 16.0737 33.9587 16.7452L33.9932 16.8132L34.0225 16.8836C34.3629 17.7027 34.4366 18.6085 34.2338 19.4717L34.2245 19.5112L34.2136 19.5503C34.0505 20.1365 33.7667 20.6826 33.3797 21.1529C32.9987 21.6162 32.5258 21.9959 31.9904 22.2675C31.4041 22.5756 30.7474 22.7253 30.085 22.701C28.9033 22.677 27.9329 22.2102 27.1341 21.3626C26.7376 20.9589 26.4305 20.4766 26.2321 19.9473C26.0332 19.4165 25.9478 18.85 25.9812 18.2846C26.0042 17.7353 26.1451 17.197 26.395 16.7066Z" fill="#474C54"/>
</svg>

<svg width="55" height="51" fill="none" xmlns="http://www.w3.org/2000/svg"><path d="M53.69 10.399v35.376a3.424 3.424 0 01-3.424 3.423H4.619a3.424 3.424 0 01-3.423-3.423V10.399h52.493z" fill="#F1F2F2"/><path d="M53.69 4.693v5.706H1.195V4.693a3.423 3.423 0 013.423-3.424h45.647a3.423 3.423 0 013.423 3.424z" fill="#A4B0C0"/><path d="M50.266.128H4.619A4.565 4.565 0 00.055 4.693v41.082a4.564 4.564 0 004.564 4.564h45.647a4.564 4.564 0 004.565-4.564V4.693A4.564 4.564 0 0050.266.128zm2.282 45.647a2.282 2.282 0 01-2.282 2.282H4.619a2.282 2.282 0 01-2.282-2.282V4.693A2.282 2.282 0 014.62 2.41h45.647a2.282 2.282 0 012.282 2.283v41.082z" fill="#474C54"/><path d="M6.902 6.975h1.14a1.141 1.141 0 000-2.282h-1.14a1.141 1.141 0 000 2.282zM12.607 6.975h1.142a1.141 1.141 0 000-2.282h-1.142a1.141 1.141 0 000 2.282zM46.842 6.975h1.142a1.141 1.141 0 000-2.282h-1.142a1.141 1.141 0 000 2.282zM49.125 9.257H5.76a1.141 1.141 0 100 2.283h43.364a1.141 1.141 0 100-2.283z" fill="#474C54"/><path d="M29.325 21.739h-.056l-.115.027a3.54 3.54 0 00-1.431.716 6.093 6.093 0 00-.464.454c-.192.203-.437.467-.712.77v.002c-1.046 1.153-1.2 1.284-1.74 1.644-.454.278-.929.52-1.42.723a5.059 5.059 0 01-1.576.326l-.39.015-.964.035V30.766h1.248c.114 0 .263-.005.402-.014l3.514 3.54 3.559 3.586v1.64l.288.292 1.61 1.635.003.002 1.625 1.638.71.715.71-.715 1.632-1.645 1.632-1.644.7-.706-.701-.704-1.618-1.625-.002-.001-1.618-1.63-.293-.296H32.226l-.253-.254.036-.032c.105-.094.202-.197.29-.307.586-.67.945-1.509 1.029-2.396.016-.165.021-.556.024-1.107a344.474 344.474 0 00-.002-3.135c-.004-1.457-.005-2.216-.023-2.646a3.537 3.537 0 00-.067-.627c-.035-.157-.09-.298-.118-.37l-.01-.028-.005-.012-.005-.012a3.57 3.57 0 00-.992-1.382 3.545 3.545 0 00-1.52-.763l-.04-.009-.04-.006a4.55 4.55 0 00-1.205-.01z" fill="#00CBA9" stroke="#474C54" stroke-width="2"/><path d="M19.938 33.73h0l-2.443 2.46-.699.705.7.705.813.82.813.819.705.71.71-.706 1.9-1.892h0l1.61-1.603.688-.004h.001l1.1-.007 2.38-.016-1.677-1.689-1.37-1.38-1.37-1.38-.71-.715-.71.715-2.442 2.458z" fill="#00CBA9" stroke="#474C54" stroke-width="2"/><path d="M29.77 16.334a2.323 2.323 0 00-1.586 1.267c-.126.242-.196.51-.205.784a2.058 2.058 0 00.596 1.59c.466.501.946.718 1.568.727.323.014.644-.059.93-.211a2.343 2.343 0 001.214-1.477 2.225 2.225 0 00-.111-1.363 2.805 2.805 0 00-.843-.992 2.48 2.48 0 00-.646-.296 2.77 2.77 0 00-.918-.029z" fill="#00CBA9"/><path fill-rule="evenodd" clip-rule="evenodd" d="M32.287 19.014a2.364 2.364 0 01-1.215 1.477 1.795 1.795 0 01-.93.21c-.62-.008-1.101-.225-1.567-.726a2.045 2.045 0 01-.596-1.59c.009-.274.079-.542.205-.784a2.345 2.345 0 011.585-1.267 2.77 2.77 0 01.918.029c.229.067.446.167.646.296.354.26.643.6.843.992.179.431.218.908.11 1.363zm-5.892-2.307a4.345 4.345 0 011.19-1.484c.51-.408 1.172-.804 1.915-.87a4.769 4.769 0 011.58.049l.087.017.084.025c.413.121.805.301 1.167.534l.05.032.047.035a4.806 4.806 0 011.444 1.7l.034.068.03.07c.34.82.414 1.726.21 2.589l-.008.04-.011.038a4.362 4.362 0 01-2.224 2.717 3.797 3.797 0 01-1.905.434c-1.182-.024-2.152-.49-2.95-1.338a4.047 4.047 0 01-1.154-3.078c.023-.55.164-1.088.414-1.578z" fill="#474C54"/></svg>
